!!!COM: Charles Gounod
!!!CNT: Francais
!!!TXO: Francais
!!!OTL: "Aimons mes soeurs (Romance)"
!!!LYR: Augier
!!!OPR: 
!!!OPS: Op. 
!!!ONM: No.
!!!ENC: Emily Thomas
!!!YOR: CD Sheet Music French Art Songs, The Ultimate Collection
!!!YOR: CD Sheet Music, LLC 2003
!!!ODT: 1872/
!!NB: Vocal melody and text encoded.
**kern	**silbe
=1	=1
*clefG2	*
*k[b-e-a-]	*
*M12/8	*
*MM[Andantino]	*
2.r	.
2.r	.
=2	=2
2.r	.
2.r	.
=3	=3
2.r	.
2.r	.
=4	=4
2.r	.
4r	.
8r	.
4r	.
{8dd	{Ma
=5	=5
4.ee-	vi-
[4.b-	-e
4b-]	|
8r	.
4r	.
8a-	en
=6	=6
8g	ce
8f	|
8e-	se/-
4.f}	-jour,}
4r	.
8r	.
4r	.
{8a-	{en
=7	=7
8g	ce
8a-	|
8cc	se/-
[2.b-	-jour
4b-]}	|}
8r	.
=8	=8
{[4.ee-	{Est
8ee-]	|
8ff	un
8dd	ruis-
8ee-	-seau
8cc	|
8dd	lim-
[4.b-	-pi-
=9	=9
4.b-]	|
16a-q	|
16gq	|
4f}	-de}
8r	.
4r	.
8r	.
4r	.
{8f	{Qui
=10	=10
8e-	cou-
8f	|
8g	-le
8f	sur
8g	|
8a-	la
8g	mous
8a-	|
8cc	|
4b-}	-se}
8r	.
=11	=11
{[4.b-	{Et
8b-]	|
8cc	|
8dd	re-
8ee-	-fle\-
8dd	|
8ee-	|
8dd	-le
8ee-	|
8cc	le
=12	=12
[2.dd	jour.
8dd]}	|}
8r	.
8r	.
4r	.
{8bn	{Ai-
=13	=13
4cc	-mons
8g	mes
[4.g	soeurs,
4g]}	|}
8r	.
4r	.
{8dd	{ai-
=14	=14
4.cc	-mons,
8r	.
8g	car
8f	la
8e-	vie
8f	est
8a-	ra-
4.g	-pi-
=15	=15
4g}	-de}
8r	.
8r	.
{8g	{Et
8g	le
[4.gg	temps
8gg]	|
8ee-	est
8cc	per-
=16	=16
[4.b-	-du
8b-]}	|}
8r	.
{8dd	{qui
4gg	pas-
8cc	-se
8cc	sans
8dd	|
8ee-	a-
=17	=17
[2.dd	-mour
4.dd_	|
8dd]}	|}
8r	.
{8cc	{Ai-
=18	=18
[4.b-	-mons
8b-]	|
8dd	ai-
8cc	|
8b-	-mons,
8dd	|
8cc	mes
4.b-}	soeurs,}
=19	=19
8r	.
{8b-	{car
8b-	la
8b-	vie
8a-	est
8g	ra-
4.dd-	-pi-
4.b-}	-de,}
=20	=20
8r	.
{8cc	{car
8cc	la
8cc	vie
8b-	est
8an	ra-
4.ee-	-pi-
8cc}	-de}
8r	.
{8ee-	{Ai-
=21	=21
4gg	-mons,
8b-	mes
[4.b-	soeurs,
8b-]	|
8ff	car
8dd	le
8ee-	temps
8cc	est
8dd	per-
=22	=22
8b-	-du
8e-	qui
8f	|
8g	pas-
8b-q	|
8a-	|
8g	-se
8f	sans
[4b-	|
4b-]	|
8d	a-
=23	=23
4.e-}	-mour.}
4r	.
8r	.
4r	.
8r	.
4r	.
{8dd	{Ai-
=24	=24
4ee-	-mons
8b-	mes
[4.b-	soeurs,
4b-]}	|}
8r	.
4r	.
{8dd	{ai-
=25	=25
[4.ee-	-mons,
8ee-]	|
8ff	car
8dd	la
8ee-	vie
8cc	est
8dd	ra-
4.b-	-pi-
=26	=26
8b-}	-de,}
8r	.
{8b-	{la
8b-	vie
8a-	est
8g	ra-
4.dd-	-pi-
4b-}	-de,}
8r	.
=27	=27
4r	.
{8cc	{la
8cc	vie
8b-	est
8an	ra-
4.ee-	-pi-
8cc}	-de,}
8r	.
{8ee-	{ai-
=28	=28
4gg	-mons,
8b-	mes
4.b-}	soeurs,}
8r	.
{8ff	{car
8dd	le
8ee-	temps
8cc	est
8dd	per-
=29	=29
8b-	-du
8e-	qui
8f	|
8g	pas=
8b-q	|
8a-	|
8g	-se
8f	sans
[4b-	|
4b-]	|
8d	a-
=30	=30
4e-}	-mour!}
8r	.
4r	.
{8b-	{ai-
[2.b-	-mons,
=31	=31
4b-]}	|}
8r	.
4r	.
{8b-	{mes
[2.b-	soeurs,
=32	=32
4b-]	|
8r	.
4.b-	ai-
[2.ee-	-mons!
=33	=33
4ee-]}	|}
8r	.
4r	.
8r	.
2.r	.
==	==
*-	*-
